!!!!SEGMENT: pl-cz--iii-699--004_volckmer-augustin--litaniae-lauretanae-g-regina-angelorum.krn
!!!cenid: 17xx:1135
!!!COM: Volckmer, Augustin
!!!COM-rismid: pe30020656
!!!CDT: 1755-~1820
!!!CNT:
!!!OPR: Litaniae Lauretanae G
!!!OTL: Regina angelorum
!!!OMV: 004
!!!PDT:
!!!AGN: Sacred; Mass
!!!SMS-siglum: PL-CZ
!!!SMS-shelfmark: III-699
!!!SMS-shelfwork: 001-004 M
!!!SMS-variant:
!!!SMS-altvar:
!!!NIFC-rismid: 300001386
!!!URL-scan: http://repozytorium.nifc.pl/skany/pl-cz-nut--iii-699
!!!ONB-nifc: UWAGA: części Litanii: Kyrie eleison, Mater Christi, Salus infirmorum, Regina angelorum, Agnus Dei
!!!key: G
**kern	**fba	**dynam	**kern	**kern	**dynam	**kern	**dynam	**kern	**text	**dynam	**kern	**text	**dynam	**kern	**text	**dynam	**kern	**text	**dynam	**kern	**dynam	**kern	**dynam	**kern	**dynam	**kern	**dynam
*	*	*	*group4	*group4	*	*group4	*	*group3	*	*	*group3	*	*	*group3	*	*	*group3	*	*	*group2	*	*group2	*	*group1	*	*group1	*
*part12	*part12	*part12	*part11	*part10	*part10	*part9	*part9	*part8	*part8	*part8	*part7	*part7	*part7	*part6	*part6	*part6	*part5	*part5	*part5	*part4	*part4	*part3	*part3	*part2	*part2	*part1	*part1
*staff12	*	*	*staff11	*staff10	*	*staff9	*	*staff8	*staff8	*	*staff7	*staff7	*	*staff6	*staff6	*	*staff5	*staff5	*	*staff4	*	*staff3	*	*staff2	*	*staff1	*
*IGcont	*	*	*IGacmp	*IGacmp	*	*IGacmp	*	*IGcoro	*	*	*IGcoro	*	*	*IGcoro	*	*	*IGcoro	*	*	*IGacmp	*	*IGacmp	*	*IGacmp	*	*IGacmp	*
*ICklav	*	*	*ICstr	*ICstr	*	*ICstr	*	*ICvox	*	*	*ICvox	*	*	*ICvox	*	*	*ICvox	*	*	*ICbras	*	*ICbras	*	*ICww	*	*ICww	*
*Iorgan	*	*	*Iviola	*Ivioln	*	*Ivioln	*	*Ibass	*	*	*Itenor	*	*	*Ialto	*	*	*Isoprn	*	*	*Icor	*	*Icor	*	*Iflt	*	*Iflt	*
*I"Organo.	*	*	*I"Alto - Viola - Obligat	*I"Violino Secundo	*	*I"Violino Primo	*	*I"Baſso.	*	*	*I"Tenore.	*	*	*I"Alto	*	*	*I"Canto	*	*	*I"Cornu Secundo ex G	*	*I"Cornu. Primo. ex G	*	*I"Flauto Secundo.	*	*I"Flauto. Primo.	*
*I'org	*	*	*I'a-vla	*I'vl 2	*	*I'vl 1	*	*I'B	*	*	*I'T	*	*	*I'A	*	*	*I'S	*	*	*I'cor 2 in G	*	*I'cor 1 in G	*	*I'fl 2	*	*I'fl 1	*
*clefF4	*	*	*clefC3	*clefG2	*	*clefG2	*	*clefF4	*	*	*clefC4	*	*	*clefC3	*	*	*clefC1	*	*	*clefG2	*	*clefG2	*	*clefG2	*	*clefG2	*
*	*	*	*	*	*	*	*	*	*	*	*	*	*	*	*	*	*	*	*	*ITrd3c5	*	*ITrd3c5	*	*	*	*	*
*k[f#]	*	*	*k[f#]	*k[f#]	*	*k[f#]	*	*k[f#]	*	*	*k[f#]	*	*	*k[f#]	*	*	*k[f#]	*	*	*k[f#]	*	*k[f#]	*	*k[f#]	*	*k[f#]	*
*G:	*	*	*G:	*G:	*	*G:	*	*G:	*	*	*G:	*	*	*G:	*	*	*G:	*	*	*G:	*	*G:	*	*G:	*	*G:	*
*M2/4	*	*	*M2/4	*M2/4	*	*M2/4	*	*M2/4	*	*	*M2/4	*	*	*M2/4	*	*	*M2/4	*	*	*M2/4	*	*M2/4	*	*M2/4	*	*M2/4	*
*2\right	*	*	*2\right	*2\right	*below	*2\right	*below	*2\right	*	*	*2\right	*	*	*2\right	*	*	*2\right	*	*	*2\right	*below	*2\right	*	*2\right	*below	*2\right	*below
=1	=1	=1	=1	=1	=1	=1	=1	=1	=1	=1	=1	=1	=1	=1	=1	=1	=1	=1	=1	=1	=1	=1	=1	=1	=1	=1	=1
!	!	!	!	!	!	!	!	!LO:TX:a:t=R:rj	!	!	!LO:TX:a:t=R:rj	!	!	!LO:TX:a:t=R:rj	!	!	!LO:TX:a:t=R:rj	!	!	!	!	!	!	!	!	!	!
!LO:TX:a:t=allegro:rj	!	!	!	!LO:TX:a:t=allegro:rj	!	!LO:TX:a:t=Allegro	!	!LO:TX:a:t=allegro:rj	!	!	!LO:TX:a:t=allegro	!	!	!LO:TX:a:t=allegro:rj	!	!	!LO:TX:a:t=Allegro	!	!	!	!	!LO:TX:a:t=Allegro	!	!LO:TX:a:t=Allegro:rj	!	!LO:TX:a:t=Allegro:rj	!
4G\	8 3	.	8g\L	4b\	.	4d/ 4b 4gg	.	4G\	Re-	.	4d\	Re-	.	4b\	Re-	.	4gg\	Re-	.	4g\	.	4b\	.	4b\	.	4gg\	.
.	.	.	8d\	.	.	.	.	.	.	.	.	.	.	.	.	.	.	.	.	.	.	.	.	.	.	.	.
4D\	3 5	.	8f#\	4cc\	.	4d/ 4a 4ff#	.	4D\	-gi-	.	4d\	-gi-	.	4a\	-gi-	.	4ff#\	-gi-	.	4d\	.	4a\	.	4cc\	.	4ff#\	.
.	.	.	8d\J	.	.	.	.	.	.	.	.	.	.	.	.	.	.	.	.	.	.	.	.	.	.	.	.
=2	=2	=2	=2	=2	=2	=2	=2	=2	=2	=2	=2	=2	=2	=2	=2	=2	=2	=2	=2	=2	=2	=2	=2	=2	=2	=2	=2
*^	*	*	*	*	*	*	*	*	*	*	*	*	*	*	*	*	*	*	*	*	*	*	*	*	*	*	*
!	!	!	!	!	!	!	!	!	!	!	!	!	!	!	!	!	!	!LO:TX:t=P:problem:kleks oraz 4 zamiast 8	!	!	!	!	!	!	!	!	!	!
4GG/	4ryy	8 3	.	4G/ 4d	4b\	.	4d/ 4b 4gg	.	4GG/	-na	.	4d\	-na	.	4b\	-na	.	4gg\	-na	.	4G/	.	4g\	.	4b\	.	4gg\	.
*clefC1	*	*	*	*	*	*	*	*	*	*	*	*	*	*	*	*	*	*	*	*	*	*	*	*	*	*	*	*
=-	=-	=-	=-	=-	=-	=-	=-	=-	=-	=-	=-	=-	=-	=-	=-	=-	=-	=-	=-	=-	=-	=-	=-	=-	=-	=-	=-	=-
*k[f#]	*	*	*	*	*	*	*	*	*	*	*	*	*	*	*	*	*	*	*	*	*	*	*	*	*	*	*	*
8r	8ryy	.	.	4r	8r	.	8r	.	4r	.	.	4r	.	.	8r	.	.	8r	.	.	4r	.	4r	.	4r	.	4r	.
16dd/LL	16b\LL	.	.	.	16b\LL	.	(16dd\LL	.	.	.	.	.	.	.	(16b\LL	An-	.	16dd\LL	An-	.	.	.	.	.	.	.	.	.
!	!	!	!	!	!	!LO:DY:t=piano	!	!LO:DY:t=piano	!	!	!	!	!	!	!	!	!	!	!	!	!	!	!	!	!	!	!	!
16cc/JJ	16a\JJ	.	.	.	16a\JJ	p	16cc\JJ)	p	.	.	.	.	.	.	16a\JJ)	.	.	(16cc\JJ	.	.	.	.	.	.	.	.	.	.
=3	=3	=3	=3	=3	=3	=3	=3	=3	=3	=3	=3	=3	=3	=3	=3	=3	=3	=3	=3	=3	=3	=3	=3	=3	=3	=3	=3	=3
!	!	!	!	!LO:TX:a:t=2	!	!	!	!	!LO:TX:a:t=2	!	!	!LO:TX:a:t=2	!	!	!	!	!	!	!	!	!LO:TX:a:t=2	!	!LO:TX:a:t=2	!	!LO:TX:a:t=2	!	!LO:TX:a:t=2	!
8b/L	8g\L	.	.	1r	8g/L	.	8b\L	.	1r	.	.	1r	.	.	8g\	-ge-	.	8b\)	.	.	1r	.	1r	.	1r	.	1r	.
8cc/	8a\	.	.	.	8a/	.	8cc\	.	.	.	.	.	.	.	8a\	.	.	8cc\	-ge-	.	.	.	.	.	.	.	.	.
8dd/	8b\	.	.	.	8b/	.	8dd\	.	.	.	.	.	.	.	8b\L	-lo-	.	8dd\L	-lo-	.	.	.	.	.	.	.	.	.
8ee/J	8cc\J	.	.	.	8cc/J	.	8ee\J	.	.	.	.	.	.	.	8cc\J	.	.	8ee\J	.	.	.	.	.	.	.	.	.	.
=4	=4	=4	=4	=4	=4	=4	=4	=4	=4	=4	=4	=4	=4	=4	=4	=4	=4	=4	=4	=4	=4	=4	=4	=4	=4	=4	=4	=4
4dd/	4b\	.	.	.	4b\	.	4dd\	.	.	.	.	.	.	.	4b\	-rum.	.	4dd\	-rum.	.	.	.	.	.	.	.	.	.
4r	4ryy	.	.	.	4r	.	4r	.	.	.	.	.	.	.	4r	.	.	4r	.	.	.	.	.	.	.	.	.	.
*v	*v	*	*	*	*	*	*	*	*	*	*	*	*	*	*	*	*	*	*	*	*	*	*	*	*	*	*	*
*clefF4	*	*	*	*	*	*	*	*	*	*	*	*	*	*	*	*	*	*	*	*	*	*	*	*	*	*	*
=5	=5	=5	=5	=5	=5	=5	=5	=5	=5	=5	=5	=5	=5	=5	=5	=5	=5	=5	=5	=5	=5	=5	=5	=5	=5	=5	=5
!	!	!	!	!	!	!	!LO:DY:t=for	!	!	!	!	!	!	!	!	!	!	!	!	!	!LO:DY:t=for	!	!	!	!	!	!
4G\	8 3	.	(8g\L	4b\	f	4d/ 4b 4gg	f	4G\	Re-	.	4d\	Re-	.	4b\	Re-	.	4gg\	Re-	.	4g\	f	4b\	.	4b\	.	4gg\	.
.	.	.	8d\)	.	.	.	.	.	.	.	.	.	.	.	.	.	.	.	.	.	.	.	.	.	.	.	.
4D\	3 5	.	(8f#\	4cc\	.	4d/ 4a 4ff#	.	4D\	-gi-	.	4d\	-gi-	.	4a\	-gi-	.	4ff#\	-gi-	.	4d\	.	4a\	.	4cc\	.	4ff#\	.
.	.	.	8d\J)	.	.	.	.	.	.	.	.	.	.	.	.	.	.	.	.	.	.	.	.	.	.	.	.
=6	=6	=6	=6	=6	=6	=6	=6	=6	=6	=6	=6	=6	=6	=6	=6	=6	=6	=6	=6	=6	=6	=6	=6	=6	=6	=6	=6
*^	*	*	*	*	*	*	*	*	*	*	*	*	*	*	*	*	*	*	*	*	*	*	*	*	*	*	*
4GG/	4ryy	8 3	.	4G/ 4d 4g	4b\	.	4d/ 4b 4gg	.	4GG/	-na	.	4d\	-na	.	4b\	-na	.	4gg\	-na	.	4G/	.	4g\	.	4b\	.	4gg\	.
*clefC1	*	*	*	*	*	*	*	*	*	*	*	*	*	*	*	*	*	*	*	*	*	*	*	*	*	*	*	*
8r	8ryy	.	.	4r	8r	.	8r	.	4r	.	.	4r	.	.	8r	.	.	8r	.	.	4r	.	4r	.	4r	.	4r	.
16b/LL	16g\LL	.	.	.	(16g\LL	.	(16b\LL	.	.	.	.	.	.	.	16g\LL	Pa-	.	16b\LL	Pa-	.	.	.	.	.	.	.	.	.
16cc/JJ	16a\JJ	.	.	.	16a\JJ)	.	16cc\JJ)	.	.	.	.	.	.	.	16a\JJ	.	.	16cc\JJ	.	.	.	.	.	.	.	.	.	.
=7	=7	=7	=7	=7	=7	=7	=7	=7	=7	=7	=7	=7	=7	=7	=7	=7	=7	=7	=7	=7	=7	=7	=7	=7	=7	=7	=7	=7
!	!	!	!	!LO:TX:a:t=2	!	!	!	!	!LO:TX:a:t=10	!	!	!LO:TX:a:t=10	!	!	!	!	!	!	!	!	!LO:TX:a:t=9	!	!LO:TX:a:t=2	!	!LO:TX:a:t=2	!	!LO:TX:a:t=2	!
8dd/L	8b\L	.	.	1r	(8b\L	.	(8dd\L	.	0r	.	.	0r	.	.	8b\	-tri-	.	8dd\	-tri-	.	0r	.	1r	.	1r	.	1r	.
8b/	8g\	.	.	.	8g\)	.	8b\J)	.	.	.	.	.	.	.	8g\	-ar-	.	8b\	-ar-	.	.	.	.	.	.	.	.	.
8dd/	8b\	.	.	.	(8b\	.	(8dd\L	.	.	.	.	.	.	.	8b\L	-cha-	.	8dd\L	-cha-	.	.	.	.	.	.	.	.	.
8cc/J	8a\J	.	.	.	8a\J)	.	8cc\J)	.	.	.	.	.	.	.	8a\J	.	.	8cc\J	.	.	.	.	.	.	.	.	.	.
=8	=8	=8	=8	=8	=8	=8	=8	=8	=8	=8	=8	=8	=8	=8	=8	=8	=8	=8	=8	=8	=8	=8	=8	=8	=8	=8	=8	=8
!	!	!	!	!	!	!	!	!	!	!	!	!	!	!	!LO:LB:g=original	!	!	!	!	!	!	!	!	!	!	!	!	!
4b/	4g\	.	.	.	4g/	.	4b\	.	.	.	.	.	.	.	4g\	-rum.	.	4b\	-rum.	.	.	.	.	.	.	.	.	.
4r	4r	.	.	.	4r	.	4r	.	.	.	.	.	.	.	4r	.	.	4r	.	.	.	.	.	.	.	.	.	.
*v	*v	*	*	*	*	*	*	*	*	*	*	*	*	*	*	*	*	*	*	*	*	*	*	*	*	*	*	*
*clefF4	*	*	*	*	*	*	*	*	*	*	*	*	*	*	*	*	*	*	*	*	*	*	*	*	*	*	*
=9	=9	=9	=9	=9	=9	=9	=9	=9	=9	=9	=9	=9	=9	=9	=9	=9	=9	=9	=9	=9	=9	=9	=9	=9	=9	=9	=9
!LO:LB:g=original	!	!	!	!	!	!	!	!	!	!	!	!	!	!	!	!	!LO:LB:g=original	!	!	!	!	!	!	!	!	!	!
!LO:TX:a:t=pedal	!	!	!	!LO:LB:g=original	!LO:DY:t=piano	!LO:TX:b:t=dolce	!LO:DY:t=piano	!	!	!	!	!	!	!LO:TX:a:t=8.	!	!	!LO:TX:a:t=8	!	!	!	!	!	!	!LO:TX:b:t=dolce	!	!LO:TX:b:t=dolce	!
2GG/	.	.	8g\L	8d/L 8b	p	4.dd\	p	.	.	.	.	.	.	0r	.	.	0r	.	.	.	.	2d/	.	2dd\	.	4.dd\	.
.	.	.	8g\	8d/ 8b	.	.	.	.	.	.	.	.	.	.	.	.	.	.	.	.	.	.	.	.	.	.	.
.	.	.	8g\	8d/ 8b	.	.	.	.	.	.	.	.	.	.	.	.	.	.	.	.	.	.	.	.	.	.	.
.	.	.	8g\J	8d/J 8b	.	(16bb\LL	.	.	.	.	.	.	.	.	.	.	.	.	.	.	.	.	.	.	.	16bb\LL	.
.	.	.	.	.	.	16gg\JJ)	.	.	.	.	.	.	.	.	.	.	.	.	.	.	.	.	.	.	.	16gg\JJ	.
=10	=10	=10	=10	=10	=10	=10	=10	=10	=10	=10	=10	=10	=10	=10	=10	=10	=10	=10	=10	=10	=10	=10	=10	=10	=10	=10	=10
*	*	*	*tremolo	*	*	*	*	*	*	*	*	*	*	*	*	*	*	*	*	*	*	*	*	*	*	*	*
*	*	*	*	*tremolo	*	*	*	*	*	*	*	*	*	*	*	*	*	*	*	*	*	*	*	*	*	*	*
!	!	!	!	!	!	!LO:LB:g=original	!	!	!	!	!	!	!	!	!	!	!	!	!	!	!	!	!	!	!	!	!
2D\	.	.	8a\L	8d/ 8ccL	.	8ff#\L	.	.	.	.	.	.	.	.	.	.	.	.	.	.	.	2d/	.	2dd\	.	8ff#'\L	.
.	.	.	8a\	8d/ 8cc	.	(16aa\L	.	.	.	.	.	.	.	.	.	.	.	.	.	.	.	.	.	.	.	(16aa\L	.
.	.	.	.	.	.	16ff#\JJ)	.	.	.	.	.	.	.	.	.	.	.	.	.	.	.	.	.	.	.	16ff#\JJ)	.
.	.	.	8a\	8d/ 8cc	.	8dd\L	.	.	.	.	.	.	.	.	.	.	.	.	.	.	.	.	.	.	.	8dd\L	.
.	.	.	8a\J	8d/ 8ccJ	.	8dd\J	.	.	.	.	.	.	.	.	.	.	.	.	.	.	.	.	.	.	.	8dd\J	.
=11	=11	=11	=11	=11	=11	=11	=11	=11	=11	=11	=11	=11	=11	=11	=11	=11	=11	=11	=11	=11	=11	=11	=11	=11	=11	=11	=11
2G\	.	.	8g\L	8d/ 8bL	.	8dd\L	.	0r	.	.	0r	.	.	.	.	.	.	.	.	0r	.	2d/	.	2dd\	.	8dd\L	.
.	.	.	8g\	8d/ 8b	.	8gg\	.	.	.	.	.	.	.	.	.	.	.	.	.	.	.	.	.	.	.	8gg\	.
.	.	.	8g\	8d/ 8b	.	8bb\	.	.	.	.	.	.	.	.	.	.	.	.	.	.	.	.	.	.	.	8bb\	.
.	.	.	8g\J	8d/ 8bJ	.	8gg\J	.	.	.	.	.	.	.	.	.	.	.	.	.	.	.	.	.	.	.	8gg\J	.
=12	=12	=12	=12	=12	=12	=12	=12	=12	=12	=12	=12	=12	=12	=12	=12	=12	=12	=12	=12	=12	=12	=12	=12	=12	=12	=12	=12
2D\	.	.	8f#\L	8d/ 8aL	.	4ccc\	.	.	.	.	.	.	.	.	.	.	.	.	.	.	.	2d/	.	2dd\	.	4ccc\	.
.	.	.	8f#\	8d/ 8a	.	.	.	.	.	.	.	.	.	.	.	.	.	.	.	.	.	.	.	.	.	.	.
.	.	.	8f#\	8d/ 8a	.	4aa\	.	.	.	.	.	.	.	.	.	.	.	.	.	.	.	.	.	.	.	4aa\	.
.	.	.	8f#\J	8d/ 8aJ	.	.	.	.	.	.	.	.	.	.	.	.	.	.	.	.	.	.	.	.	.	.	.
=13	=13	=13	=13	=13	=13	=13	=13	=13	=13	=13	=13	=13	=13	=13	=13	=13	=13	=13	=13	=13	=13	=13	=13	=13	=13	=13	=13
2GG/	.	.	8g\L	8d/ 8bL	.	4.dd\	.	.	.	.	.	.	.	0r	.	.	0r	.	.	.	.	2d/	.	2dd\	.	4.dd\	.
.	.	.	8g\	8d/ 8b	.	.	.	.	.	.	.	.	.	.	.	.	.	.	.	.	.	.	.	.	.	.	.
.	.	.	8g\	8d/ 8b	.	.	.	.	.	.	.	.	.	.	.	.	.	.	.	.	.	.	.	.	.	.	.
.	.	.	8g\J	8d/ 8bJ	.	16bb\LL	.	.	.	.	.	.	.	.	.	.	.	.	.	.	.	.	.	.	.	(16bb\LL	.
.	.	.	.	.	.	16gg\JJ	.	.	.	.	.	.	.	.	.	.	.	.	.	.	.	.	.	.	.	16gg\JJ)	.
=14	=14	=14	=14	=14	=14	=14	=14	=14	=14	=14	=14	=14	=14	=14	=14	=14	=14	=14	=14	=14	=14	=14	=14	=14	=14	=14	=14
!	!	!	!	!	!	!	!	!	!	!	!	!	!	!	!	!	!	!	!	!	!	!	!	!	!	!LO:LB:g=original	!
2D\	.	.	8a\L	8d/ 8ccL	.	8ff#\L	.	.	.	.	.	.	.	.	.	.	.	.	.	.	.	2d/	.	2dd\	.	8ff#\L	.
.	.	.	8a\	8d/ 8cc	.	16aa\L	.	.	.	.	.	.	.	.	.	.	.	.	.	.	.	.	.	.	.	16aa\L	.
.	.	.	.	.	.	16ff#\JJ	.	.	.	.	.	.	.	.	.	.	.	.	.	.	.	.	.	.	.	16ff#\JJ	.
.	.	.	8a\	8d/ 8cc	.	8dd\L	.	.	.	.	.	.	.	.	.	.	.	.	.	.	.	.	.	.	.	8dd\L	.
.	.	.	8a\J	8d/ 8ccJ	.	8dd\J	.	.	.	.	.	.	.	.	.	.	.	.	.	.	.	.	.	.	.	8dd\J	.
*	*	*	*Xtremolo	*Xtremolo	*	*	*	*	*	*	*	*	*	*	*	*	*	*	*	*	*	*	*	*	*	*	*
=15	=15	=15	=15	=15	=15	=15	=15	=15	=15	=15	=15	=15	=15	=15	=15	=15	=15	=15	=15	=15	=15	=15	=15	=15	=15	=15	=15
!	!	!	!LO:LB:g=original	!	!	!	!	!	!	!	!	!	!	!	!	!	!	!	!	!	!	!	!	!	!	!	!
4G\	.	.	8g\L	8d/L 8b	.	8gg\L	.	1r	.	.	1r	.	.	.	.	.	.	.	.	2r	.	4d/	.	2dd\	.	8gg\L	.
.	.	.	8g\	8d/ 8b	.	8bb\	.	.	.	.	.	.	.	.	.	.	.	.	.	.	.	.	.	.	.	8bb\	.
4D\	.	.	8a\	8d/ 8cc	.	8dd\	.	.	.	.	.	.	.	.	.	.	.	.	.	.	.	4d/	.	.	.	8dd\	.
.	.	.	8a\J	8d/J 8cc	.	8ff#\J	.	.	.	.	.	.	.	.	.	.	.	.	.	.	.	.	.	.	.	8ff#\J	.
=16	=16	=16	=16	=16	=16	=16	=16	=16	=16	=16	=16	=16	=16	=16	=16	=16	=16	=16	=16	=16	=16	=16	=16	=16	=16	=16	=16
4GG/	.	.	4g\	4d/ 4b	.	4gg\	.	.	.	.	.	.	.	.	.	.	.	.	.	4G/	.	4g/	.	4dd\	.	4gg\	.
4r	.	.	4r	8r	.	8r	.	.	.	.	.	.	.	.	.	.	.	.	.	4r	.	4r	.	4r	.	4r	.
!	!	!	!	!	!	!	!LO:DY:t=for	!	!	!	!	!	!	!	!	!	!	!	!	!	!	!	!	!	!	!	!
.	.	.	.	8d/ 8b	.	8dd\	f	.	.	.	.	.	.	.	.	.	.	.	.	.	.	.	.	.	.	.	.
=17	=17	=17	=17	=17	=17	=17	=17	=17	=17	=17	=17	=17	=17	=17	=17	=17	=17	=17	=17	=17	=17	=17	=17	=17	=17	=17	=17
*	*	*	*tremolo	*tremolo	*	*	*	*	*	*	*	*	*	*	*	*	*	*	*	*	*	*	*	*	*	*	*
!LO:TX:b:t=Organo	!	!	!	!	!LO:DY:t=forte:rj	!	!	!	!	!	!	!	!	!	!	!	!	!	!	!	!	!LO:LB:g=original	!	!LO:LB:g=original	!LO:DY:t=forte	!	!LO:DY:t=for
8G\L	x 3	.	8g\L	8d/ 8bL	f	4.dd\	.	2G\	Re-	.	2B\	Re-	.	2g\	Re-	.	2dd\	Re-	.	2g\	.	2b\	.	2gg\	f	2bb\	f
8G\	.	.	8g\	8d/ 8b	.	.	.	.	.	.	.	.	.	.	.	.	.	.	.	.	.	.	.	.	.	.	.
8G\J	.	.	8g\	8d/ 8b	.	.	.	.	.	.	.	.	.	.	.	.	.	.	.	.	.	.	.	.	.	.	.
8ryy	.	.	8g\J	8d/ 8bJ	.	(16bb\LL	.	.	.	.	.	.	.	.	.	.	.	.	.	.	.	.	.	.	.	.	.
.	.	.	.	.	.	16gg\JJ)	.	.	.	.	.	.	.	.	.	.	.	.	.	.	.	.	.	.	.	.	.
=18	=18	=18	=18	=18	=18	=18	=18	=18	=18	=18	=18	=18	=18	=18	=18	=18	=18	=18	=18	=18	=18	=18	=18	=18	=18	=18	=18
8D\L	7 5	.	8a\L	8d/ 8ccL	.	8ff#\L	.	4D\	-gi-	.	4c\	-gi-	.	4a\	-gi-	.	4dd\	-gi-	.	2d/	.	2a\	.	2aa\	.	2ccc\	.
8D\	.	.	8a\	8d/ 8cc	.	16aa\L	.	.	.	.	.	.	.	.	.	.	.	.	.	.	.	.	.	.	.	.	.
.	.	.	.	.	.	16ff#\JJ	.	.	.	.	.	.	.	.	.	.	.	.	.	.	.	.	.	.	.	.	.
8D\J	.	.	8a\	8d/ 8cc	.	8dd\L	.	4D\	-na	.	4c\	-na	.	4a\	-na	.	4dd\	-na	.	.	.	.	.	.	.	.	.
8ryy	.	.	8a\J	8d/ 8ccJ	.	8dd\J	.	.	.	.	.	.	.	.	.	.	.	.	.	.	.	.	.	.	.	.	.
=19	=19	=19	=19	=19	=19	=19	=19	=19	=19	=19	=19	=19	=19	=19	=19	=19	=19	=19	=19	=19	=19	=19	=19	=19	=19	=19	=19
*tremolo	*	*	*	*	*	*	*	*	*	*	*	*	*	*	*	*	*	*	*	*	*	*	*	*	*	*	*
!	!	!	!	!	!	!LO:LB:g=original	!	!	!	!	!	!	!	!	!	!	!	!	!	!	!	!	!	!	!	!	!
8GG/L	x 3	.	8g\L	8d/ 8bL	.	8dd\L	.	4.GG/	An-	.	4.B\	An-	.	4.g\	An-	.	4.dd\	An-	.	2B/	.	2g\	.	2gg\	.	2bb\	.
8GG/	.	.	8g\	8d/ 8b	.	8gg\	.	.	.	.	.	.	.	.	.	.	.	.	.	.	.	.	.	.	.	.	.
8GG/	.	.	8g\	8d/ 8b	.	8bb\	.	.	.	.	.	.	.	.	.	.	.	.	.	.	.	.	.	.	.	.	.
8GG/J	.	.	8g\J	8d/ 8bJ	.	8gg\J	.	8BB/	-ge-	.	8B\	-ge-	.	8g\	-ge-	.	8dd\	-ge-	.	.	.	.	.	.	.	.	.
=20	=20	=20	=20	=20	=20	=20	=20	=20	=20	=20	=20	=20	=20	=20	=20	=20	=20	=20	=20	=20	=20	=20	=20	=20	=20	=20	=20
!	!	!	!	!	!	!	!	!	!	!	!LO:LB:g=original	!	!	!	!	!	!	!	!	!	!	!	!	!	!	!	!
8D\L	x 3	.	8f#\L	8d/ 8aL	.	4ccc\	.	4D\	-lo-	.	4A\	-lo-	.	4f#\	-lo-	.	4dd\	-lo-	.	2d/	.	2a\	.	2ff#\	.	2aa\	.
8D\	.	.	8f#\	8d/ 8a	.	.	.	.	.	.	.	.	.	.	.	.	.	.	.	.	.	.	.	.	.	.	.
8D\	.	.	8f#\	8d/ 8a	.	4aa\	.	4D\	-rum	.	4A\	-rum	.	4f#\	-rum	.	4dd\	-rum	.	.	.	.	.	.	.	.	.
8D\J	.	.	8f#\J	8d/ 8aJ	.	.	.	.	.	.	.	.	.	.	.	.	.	.	.	.	.	.	.	.	.	.	.
=21	=21	=21	=21	=21	=21	=21	=21	=21	=21	=21	=21	=21	=21	=21	=21	=21	=21	=21	=21	=21	=21	=21	=21	=21	=21	=21	=21
!	!	!	!	!LO:LB:g=original	!	!	!	!LO:LB:g=original	!	!	!	!	!	!	!	!	!	!	!	!	!	!	!	!	!	!	!
8G\L	.	.	8g\L	8d/ 8bL	.	4.dd\	.	2G\	o-	.	2B\	o-	.	2g\	o-	.	2dd\	o-	.	2g\	.	2b\	.	2gg\	.	2bb\	.
8G\	.	.	8g\	8d/ 8b	.	.	.	.	.	.	.	.	.	.	.	.	.	.	.	.	.	.	.	.	.	.	.
8G\	.	.	8g\	8d/ 8b	.	.	.	.	.	.	.	.	.	.	.	.	.	.	.	.	.	.	.	.	.	.	.
8G\J	.	.	8g\J	8d/ 8bJ	.	16bb\LL	.	.	.	.	.	.	.	.	.	.	.	.	.	.	.	.	.	.	.	.	.
.	.	.	.	.	.	16gg\JJ	.	.	.	.	.	.	.	.	.	.	.	.	.	.	.	.	.	.	.	.	.
=22	=22	=22	=22	=22	=22	=22	=22	=22	=22	=22	=22	=22	=22	=22	=22	=22	=22	=22	=22	=22	=22	=22	=22	=22	=22	=22	=22
8D\L	.	.	8a\L	8d/ 8ccL	.	8ff#\L	.	4D\	-ra	.	4c\	-ra	.	4a\	-ra	.	4dd\	-ra	.	2d\	.	2a\	.	2aa\	.	2ccc\	.
8D\	.	.	8a\	8d/ 8cc	.	16aa\L	.	.	.	.	.	.	.	.	.	.	.	.	.	.	.	.	.	.	.	.	.
.	.	.	.	.	.	16ff#\JJ	.	.	.	.	.	.	.	.	.	.	.	.	.	.	.	.	.	.	.	.	.
8D\	.	.	8a\	8d/ 8cc	.	8dd\L	.	4D\	pro	.	4c\	pro	.	4a\	pro	.	4dd\	pro	.	.	.	.	.	.	.	.	.
8D\J	.	.	8a\J	8d/ 8ccJ	.	8dd\J	.	.	.	.	.	.	.	.	.	.	.	.	.	.	.	.	.	.	.	.	.
*Xtremolo	*	*	*Xtremolo	*Xtremolo	*	*	*	*	*	*	*	*	*	*	*	*	*	*	*	*	*	*	*	*	*	*	*
=23	=23	=23	=23	=23	=23	=23	=23	=23	=23	=23	=23	=23	=23	=23	=23	=23	=23	=23	=23	=23	=23	=23	=23	=23	=23	=23	=23
*	*	*	*	*^	*	*	*	*	*	*	*	*	*	*	*	*	*	*	*	*	*	*	*	*	*	*	*
!	!	!	!	!	!	!	!	!	!	!	!	!LO:SIC:v:s=(4B\	!	!	!	!	!	!	!	!	!LO:LB:g=original	!	!	!	!	!	!	!
8G\L	.	.	8g\L	8b/L	2d/	.	8gg\L	.	4G\	no-	.	(4c\	no-	.	(4g\	no-	.	(4dd\	no-	.	4B/	.	4g\	.	4gg\	.	4bb\	.
8G\	.	.	8g\	8b/	.	.	8bb\	.	.	.	.	.	.	.	.	.	.	.	.	.	.	.	.	.	.	.	.	.
8D\	.	.	8f#\	8a/	.	.	8dd\	.	4D\	.	.	4d\)	.	.	4a\)	.	.	4ff#\)	.	.	4d/	.	4a\	.	4ff#\	.	4aa\	.
8D\J	.	.	8f#\J	8a/J	.	.	8ff#\J	.	.	.	.	.	.	.	.	.	.	.	.	.	.	.	.	.	.	.	.	.
*	*	*	*	*v	*v	*	*	*	*	*	*	*	*	*	*	*	*	*	*	*	*	*	*	*	*	*	*	*
=24	=24	=24	=24	=24	=24	=24	=24	=24	=24	=24	=24	=24	=24	=24	=24	=24	=24	=24	=24	=24	=24	=24	=24	=24	=24	=24	=24
!LO:LB:g=original	!	!	!	!	!	!	!	!	!	!	!	!	!	!	!	!	!	!	!	!	!	!	!	!	!	!	!
4GG/	.	.	4g\	4d/ 4b	.	4gg\	.	4GG/	-bis	.	4d\	-bis	.	4b\	-bis	.	4gg\	-bis	.	4B/	.	4g\	.	4gg\	.	4gg\	.
4r	.	.	4r	8r	.	8r	.	8r	.	.	8r	.	.	8r	.	.	8r	.	.	4r	.	4r	.	4r	.	4r	.
!	!	!	!	!	!	!	!	!LO:N:vis=8	!	!	!	!	!	!	!	!	!	!	!	!	!	!	!	!	!	!	!
.	.	.	.	(16ee\LL	.	(16gg\LL	.	16A\	Re-	.	(16e\LL	Re-	.	8a\	Re-	.	16gg\LL	Re-	.	.	.	.	.	.	.	.	.
!	!	!	!	!	!	!	!	!LO:N:vis=8:xstem	!	!	!	!	!	!	!	!	!	!	!	!	!	!	!	!	!	!	!
.	.	.	.	16dd\JJ)	.	16ff#\JJ)	.	16G\	.	.	16d\JJ)	.	.	.	.	.	16ff#\JJ	.	.	.	.	.	.	.	.	.	.
=25	=25	=25	=25	=25	=25	=25	=25	=25	=25	=25	=25	=25	=25	=25	=25	=25	=25	=25	=25	=25	=25	=25	=25	=25	=25	=25	=25
*	*	*	*tremolo	*	*	*	*	*	*	*	*	*	*	*	*	*	*	*	*	*	*	*	*	*	*	*	*
!	!	!	!	!	!	!	!	!	!	!	!	!	!	!LO:LB:g=original	!	!	!	!	!	!LO:TX:a:t=4	!	!LO:TX:a:t=4	!	!	!	!	!
8r	.	.	8a\L	8cc#X\L	.	8ee\L	.	8A\	-gi-	.	8c#X\	-gi-	.	8a\	-gi-	.	8ee\	-gi-	.	0r	.	0r	.	2ee\	.	2ccc#X\	.
8AA/L	x #	.	8a\	8cc#\	.	8ee\	.	8AA/	-na	.	8c#\	-na	.	8a\	-na	.	8ee\	-na	.	.	.	.	.	.	.	.	.
8C#X/	.	.	8a\	8cc#\	.	8ee\	.	8AA/	Pa-	.	8c#\	Pa-	.	8a\	Pa-	.	8ee\	Pa-	.	.	.	.	.	.	.	.	.
8AA/J	.	.	8a\J	8cc#\J	.	8ee\J	.	16C#X/LL	-tri-	.	16c#\	-tri-	.	16a\	-tri-	.	16ee\	-tri-	.	.	.	.	.	.	.	.	.
.	.	.	.	.	.	.	.	16AA/JJ	-ar-	.	16c#\	-ar-	.	16a\	-ar-	.	16ee\	-ar-	.	.	.	.	.	.	.	.	.
*	*	*	*Xtremolo	*	*	*	*	*	*	*	*	*	*	*	*	*	*	*	*	*	*	*	*	*	*	*	*
=26	=26	=26	=26	=26	=26	=26	=26	=26	=26	=26	=26	=26	=26	=26	=26	=26	=26	=26	=26	=26	=26	=26	=26	=26	=26	=26	=26
!	!	!	!	!	!	!	!	!	!	!	!	!	!	!	!	!	!LO:LB:g=original	!	!	!	!	!	!	!	!	!	!
4D\	5 3	.	4a\	8dd\L	.	8ff#\L	.	4D\	-cha-	.	8d\L	-cha-	.	4a\	-cha-	.	8ff#\L	-cha-	.	.	.	.	.	2ff#\	.	2ddd\	.
.	.	.	.	8ee\J	.	8gg\J	.	.	.	.	8e\J	.	.	.	.	.	8gg\J	.	.	.	.	.	.	.	.	.	.
4r	.	.	8r	8ff#\L	.	8aa\L	.	8D\	-rum	.	8f#\	-rum	.	8a\	-rum	.	8aa\	-rum	.	.	.	.	.	.	.	.	.
.	.	.	8a\	(16ee\L	.	16gg\L	.	8A\	Re-	.	16e\LL	Re-	.	8a\	Re-	.	16gg\LL	Re-	.	.	.	.	.	.	.	.	.
.	.	.	.	16dd\JJ)	.	16ff#\JJ	.	.	.	.	16d\JJ	.	.	.	.	.	16ff#\JJ	.	.	.	.	.	.	.	.	.	.
=27	=27	=27	=27	=27	=27	=27	=27	=27	=27	=27	=27	=27	=27	=27	=27	=27	=27	=27	=27	=27	=27	=27	=27	=27	=27	=27	=27
*	*	*	*tremolo	*tremolo	*	*	*	*	*	*	*	*	*	*	*	*	*	*	*	*	*	*	*	*	*	*	*
!	!	!	!	!	!	!	!	!	!	!	!LO:LB:g=original	!	!	!	!	!	!	!	!	!	!	!	!	!	!	!	!
8r	.	.	8a\L	8cc#X\L	.	8ee\L	.	8A\	-gi-	.	8c#X\	-gi-	.	8a\	-gi-	.	8ee\	-gi-	.	.	.	.	.	2ee\	.	2ccc#X\	.
8AA/L	x #	.	8a\	8cc#X\	.	8ee\	.	8AA/	-na	.	8c#\	-na	.	8a\	-na	.	8ee\	-na	.	.	.	.	.	.	.	.	.
8C#X/	.	.	8a\	8cc#X\	.	8ee\	.	(8C#X/	Pro-	.	8c#\	Pro-	.	8a\	Pro-	.	8ee\	Pro-	.	.	.	.	.	.	.	.	.
!	!	!	!	!	!	!	!	!LO:SIC:v:t=custos G	!	!	!	!	!	!	!	!	!	!	!	!	!	!	!	!	!	!	!
8AA/J	.	.	8a\J	8cc#X\J	.	8ee\J	.	8AA/)	-phe-	.	8c#\	-phe-	.	8a\	-phe-	.	8ee\	-phe-	.	.	.	.	.	.	.	.	.
*	*	*	*Xtremolo	*Xtremolo	*	*	*	*	*	*	*	*	*	*	*	*	*	*	*	*	*	*	*	*	*	*	*
=28	=28	=28	=28	=28	=28	=28	=28	=28	=28	=28	=28	=28	=28	=28	=28	=28	=28	=28	=28	=28	=28	=28	=28	=28	=28	=28	=28
!	!	!	!	!	!	!	!	!LO:LB:g=original	!	!	!	!	!	!	!	!	!	!	!	!	!	!	!	!	!	!	!
4D\	.	.	4a\	8dd\L	.	8ff#\L	.	4D\	-ta-	.	8d\L	-ta-	.	4a\	-ta-	.	8ff#\L	-ta-	.	.	.	.	.	2ff#\	.	2ddd\	.
.	.	.	.	8ee\	.	8gg\	.	.	.	.	8e\J	.	.	.	.	.	8gg\J	.	.	.	.	.	.	.	.	.	.
8r	.	.	8r	8ff#\	.	8aa\	.	8D\	-rum	.	8f#\	-rum	.	8a\	-rum	.	8aa\	-rum	.	.	.	.	.	.	.	.	.
8F#\	.	.	8a\	8dd\J	.	8ff#\J	.	8F#\	o-	.	8d\	o-	.	8a\	o-	.	8ff#\	o-	.	.	.	.	.	.	.	.	.
=29	=29	=29	=29	=29	=29	=29	=29	=29	=29	=29	=29	=29	=29	=29	=29	=29	=29	=29	=29	=29	=29	=29	=29	=29	=29	=29	=29
!LO:TX:t=P:problem:mixed beam	!	!	!LO:LB:g=original	!	!	!LO:LB:g=original	!	!	!	!	!	!	!	!	!	!	!	!	!	!	!	!	!	!	!	!LO:LB:g=original	!
8G\L	.	.	8g\L	8b/L	.	8gg\L	.	8G\	-ra	.	8B\	-ra	.	8b\	-ra	.	8gg\	-ra	.	4g\	.	4b\	.	8r	.	8r	.
8E\	.	.	8b\	8g/	.	8ee\	.	8E\	pro	.	8B\	pro	.	8g\	pro	.	8ee\	pro	.	.	.	.	.	8gg\L	.	8eee\L	.
!	!	!	!	!	!	!	!	!LO:TX:t=P:problem:mixed beam	!	!	!	!	!	!	!	!	!	!	!	!	!	!	!	!	!	!	!
8A\	x 4	.	8a\	8f#/	.	8dd\	.	8A\L	no-	.	4A\	no-	.	8f#\L	no-	.	8dd\L	no-	.	8a\L	.	8a\L	.	8ff#\	.	8ddd\	.
8AA/J	x #	.	8a\J	8e/J	.	8cc#X\J	.	8AA/J	.	.	.	.	.	8e\J	.	.	8cc#X\J	.	.	8a\J	.	8a\J	.	8ee\J	.	8ccc#X\J	.
=30	=30	=30	=30	=30	=30	=30	=30	=30	=30	=30	=30	=30	=30	=30	=30	=30	=30	=30	=30	=30	=30	=30	=30	=30	=30	=30	=30
!	!	!	!	!LO:LB:g=original	!	!	!	!	!	!	!	!	!	!	!	!	!	!	!	!	!	!	!	!	!	!	!
4D\	.	.	4d\ 4a	4f#/	.	16dd\LL	.	4D\	-bis	.	4A\	-bis	.	4f#\	-bis	.	4dd\	-bis	.	4d/	.	4a\	.	4ff#\	.	4ddd\	.
.	.	.	.	.	.	16a\	.	.	.	.	.	.	.	.	.	.	.	.	.	.	.	.	.	.	.	.	.
.	.	.	.	.	.	16ff#\	.	.	.	.	.	.	.	.	.	.	.	.	.	.	.	.	.	.	.	.	.
.	.	.	.	.	.	16a\JJ	.	.	.	.	.	.	.	.	.	.	.	.	.	.	.	.	.	.	.	.	.
8r	.	.	8r	8r	.	16gg\LL	.	8r	.	.	8r	.	.	8r	.	.	8r	.	.	8r	.	8r	.	8r	.	8r	.
.	.	.	.	.	.	16ee\	.	.	.	.	.	.	.	.	.	.	.	.	.	.	.	.	.	.	.	.	.
8AA/	x #	.	8e\	8g/	.	16cc#X\	.	8AA/	o-	.	8A\	o-	.	8e\	o-	.	8cc#X\	o-	.	8a\	.	8a\	.	8ee\	.	8ccc#X\	.
.	.	.	.	.	.	16a\JJ	.	.	.	.	.	.	.	.	.	.	.	.	.	.	.	.	.	.	.	.	.
=31	=31	=31	=31	=31	=31	=31	=31	=31	=31	=31	=31	=31	=31	=31	=31	=31	=31	=31	=31	=31	=31	=31	=31	=31	=31	=31	=31
4D\	x 3	.	4d\ 4a	4f#/	.	16dd\LL	.	4D\	-ra	.	4A\	-ra	.	4f#\	-ra	.	4dd\	-ra	.	4d\	.	4a\	.	4ff#\	.	4ddd\	.
.	.	.	.	.	.	16a\	.	.	.	.	.	.	.	.	.	.	.	.	.	.	.	.	.	.	.	.	.
.	.	.	.	.	.	16ff#\	.	.	.	.	.	.	.	.	.	.	.	.	.	.	.	.	.	.	.	.	.
.	.	.	.	.	.	16a\JJ	.	.	.	.	.	.	.	.	.	.	.	.	.	.	.	.	.	.	.	.	.
8r	.	.	8r	8r	.	16gg\LL	.	8r	.	.	8r	.	.	8r	.	.	8r	.	.	8r	.	8r	.	8r	.	8r	.
.	.	.	.	.	.	16ee\	.	.	.	.	.	.	.	.	.	.	.	.	.	.	.	.	.	.	.	.	.
!	!	!	!	!	!	!LO:SIC:v:s=16cc#\	!	!	!	!	!	!	!	!	!	!	!	!	!	!	!	!	!	!	!	!	!
8AA/	x #	.	8e\	8g/	.	16cc\	.	8AA/	pro	.	8A\	pro	.	8e\	pro	.	8cc#X\	pro	.	8a\	.	8a\	.	8ee\	.	8ccc#X\	.
.	.	.	.	.	.	16a\JJ	.	.	.	.	.	.	.	.	.	.	.	.	.	.	.	.	.	.	.	.	.
=32	=32	=32	=32	=32	=32	=32	=32	=32	=32	=32	=32	=32	=32	=32	=32	=32	=32	=32	=32	=32	=32	=32	=32	=32	=32	=32	=32
!	!	!	!	!	!	!	!	!	!	!	!	!	!	!LO:LB:g=original	!	!	!	!	!	!	!	!	!	!	!	!	!
8D\L	x 3	.	4d\ 4a	8f#/L	.	8dd\L	.	8D\L	no-	.	2A\	no-	.	2f#\	no-	.	2dd\	no-	.	8d\L	.	8a\L	.	4ff#\	.	4ddd\	.
8d\	.	.	.	8d/ 8a 8ff#	.	8ddd\	.	8d\	.	.	.	.	.	.	.	.	.	.	.	16d\L	.	16a\L	.	.	.	.	.
.	.	.	.	.	.	.	.	.	.	.	.	.	.	.	.	.	.	.	.	16d\JJ	.	16a\JJ	.	.	.	.	.
8A\	.	.	8d\L 8a	8d/ 8a 8ff#	.	8ddd\	.	8A\	.	.	.	.	.	.	.	.	.	.	.	8d\L	.	8a\L	.	8ff#\L	.	8ddd\L	.
8F#\J	.	.	8d\J 8a	8d/J 8a 8ff#	.	8ddd\J	.	8F#\J	.	.	.	.	.	.	.	.	.	.	.	8d\J	.	8a\J	.	8ff#\J	.	8ddd\J	.
=33	=33	=33	=33	=33	=33	=33	=33	=33	=33	=33	=33	=33	=33	=33	=33	=33	=33	=33	=33	=33	=33	=33	=33	=33	=33	=33	=33
!	!	!	!	!	!	!	!	!	!	!	!	!	!	!	!	!	!	!	!	!	!	!	!	!LO:LB:g=original	!	!	!
4D\	.	.	4d\ 4a	4d/ 4a 4ff#	.	4ddd\	.	4D\	-bis	.	4A\	-bis	.	4f#\	-bis	.	4dd\	-bis	.	4d\	.	4a\	.	4ff#\	.	4ddd\	.
!	!	!	!	!	!	!	!	!LO:SIC:v:t=custos G	!	!	!	!	!	!	!	!	!	!	!	!	!	!	!	!	!	!	!
4r	.	.	4r	4r	.	4r	.	4r	.	.	4r	.	.	4r	.	.	4r	.	.	4r	.	4r	.	4r	.	4r	.
!	!	!	!	!	!	!	!	!LO:TX:b:t=Ver Cito	!	!	!	!	!	!	!	!	!	!	!	!	!	!	!	!	!	!	!
=34:|!	=34:|!	=34:|!	=34:|!	=34:|!	=34:|!	=34:|!	=34:|!	=34:|!	=34:|!	=34:|!	=34:|!	=34:|!	=34:|!	=34:|!	=34:|!	=34:|!	=34:|!	=34:|!	=34:|!	=34:|!	=34:|!	=34:|!	=34:|!	=34:|!	=34:|!	=34:|!	=34:|!
!	!	!	!	!	!	!	!	!LO:PB:g=original	!	!	!	!	!	!	!	!	!	!	!	!	!	!	!	!	!	!LO:TX:a:t=1	!
8cn\L	x 4	.	8d\L	(8a/L	.	4ff#\	.	8d\L	Re-	.	2d\	Re-	.	(4ccn\	Re-	.	(4ff#\	Re-	.	4d/	.	4a\	.	4ff#\	.	2ddd\	.
!	!	!	!	!	!	!	!	!LO:TX:t=P:problem:nadliczbowy, mało wyraźny szkic 8	!	!	!	!	!	!	!	!	!	!	!	!	!	!	!	!	!	!	!
8A\	.	.	8c\	8d/)	.	.	.	(8cn\	.	.	.	.	.	.	.	.	.	.	.	.	.	.	.	.	.	.	.
8B\	x 6	.	8B\	(8b/	.	(8gg\L	.	8B\)	.	.	.	.	.	4b\)	.	.	(8gg\L)	.	.	4g\	.	4b\	.	(8gg\L	.	.	.
8G\J	.	.	8g\J	8d/J)	.	8dd\J)	.	8G\J	.	.	.	.	.	.	.	.	8dd\J)	.	.	.	.	.	.	8dd\J)	.	.	.
=35	=35	=35	=35	=35	=35	=35	=35	=35	=35	=35	=35	=35	=35	=35	=35	=35	=35	=35	=35	=35	=35	=35	=35	=35	=35	=35	=35
!LO:LB:g=original	!	!	!	!	!	!	!	!	!	!	!LO:LB:g=original	!	!	!	!	!	!	!	!	!	!	!LO:LB:g=original	!	!	!	!LO:TX:a:t=2	!
8F#\L	x 5	.	8f#\L	8a/L	.	(8dd\L	.	8F#\L	gi-	.	4d\	gi-	.	(8a\L	.	.	4ccn\	-gi-	.	4d/	.	4a\	.	(8dd\L	.	2ddd\	.
8D\	.	.	8a\J	8f#/J	.	8ccn\J)	.	8D\J	.	.	.	.	.	8f#\J)	-gi-	.	.	.	.	.	.	.	.	8ccn\J)	.	.	.
8G\	x 3	.	4d\	4g/	.	4b\	.	8G\L	-na	.	4d\	-na	.	4g\	-na	.	4b\	-na	.	4B/	.	4g'\	.	4b\	.	.	.
8B\J	x 4	.	.	.	.	.	.	8B\J	.	.	.	.	.	.	.	.	.	.	.	.	.	.	.	.	.	.	.
=36	=36	=36	=36	=36	=36	=36	=36	=36	=36	=36	=36	=36	=36	=36	=36	=36	=36	=36	=36	=36	=36	=36	=36	=36	=36	=36	=36
!	!	!	!	!	!	!	!	!	!	!	!	!	!	!	!	!	!	!	!	!	!	!	!	!	!	!LO:TX:a:t=3	!
8c\L	x 4	.	8d\L	(8a/L	.	4ff#\	.	8d\L	A-	.	4d\	A-	.	4cc\	A-	.	4ff#\	A-	.	4d/	.	4a\	.	4ff#\	.	2ddd\	.
8A\	.	.	8c\	8d/)	.	.	.	8c\J	.	.	.	.	.	.	.	.	.	.	.	.	.	.	.	.	.	.	.
8B\	x 6	.	8B\	(8b/	.	(8gg\L	.	8B\	-po-	.	8d\	-po-	.	8b\	-po-	.	8gg\	-po-	.	4g\	.	4b\	.	8gg\L	.	.	.
8G\J	.	.	8g\J	8d/J)	.	8dd\J)	.	8G\	-sto-	.	8d\	-sto-	.	8b\	-sto-	.	8dd\	-sto-	.	.	.	.	.	8dd\J	.	.	.
=37	=37	=37	=37	=37	=37	=37	=37	=37	=37	=37	=37	=37	=37	=37	=37	=37	=37	=37	=37	=37	=37	=37	=37	=37	=37	=37	=37
!	!	!	!	!	!	!	!	!	!	!	!	!	!	!	!	!	!	!	!	!	!	!	!	!	!	!LO:TX:a:t=4	!
8F#\L	.	.	8f#\L	8a/L	.	(8cc\L	.	8F#\L	-lo-	.	4d\	-lo-	.	8a\L	-lo-	.	8cc\L	-lo-	.	4d/	.	4a\	.	8cc\L	.	2ddd\	.
8D\J	.	.	8d\J	8f#/J	.	8a\J)	.	8D\J	.	.	.	.	.	8f#\J	.	.	8a\J	.	.	.	.	.	.	8a\J	.	.	.
4G\	.	.	4d\	4g/	.	4b\	.	4G\	-rum	.	4d\	-rum	.	4g\	-rum	.	4b\	-rum	.	4B/	.	4g\	.	4b\	.	.	.
=38	=38	=38	=38	=38	=38	=38	=38	=38	=38	=38	=38	=38	=38	=38	=38	=38	=38	=38	=38	=38	=38	=38	=38	=38	=38	=38	=38
!	!	!	!	!LO:TX:t=P:problem:mixed beam	!	!LO:LB:g=original	!	!	!	!	!	!	!	!	!	!	!	!	!	!	!	!	!	!	!	!	!
8GG/L	7 5	.	4g\	8dd\L	.	(8ffn\L	.	4BB/	Re-	.	8d\L	Re-	.	4g\	Re-	.	8ffn\L	Re-	.	2g\	.	2g\	.	4bb\	.	4ddd\	.
8BB/	.	.	.	8b\	.	8dd\)	.	.	.	.	8B\J	.	.	.	.	.	8dd\J	.	.	.	.	.	.	.	.	.	.
8C/	x 3	.	8g\L	8cc\	.	(8ee\	.	8C/	gi-	.	8cn\	gi-	.	8g\	-gi-	.	8ee\	-gi-	.	.	.	.	.	4ccc\	.	4eee\	.
8E/J	.	.	8g\J	8e/J	.	8cc\J)	.	8E\	-na	.	8G/	-na	.	8e\	-na	.	8cc\	-na	.	.	.	.	.	.	.	.	.
=39	=39	=39	=39	=39	=39	=39	=39	=39	=39	=39	=39	=39	=39	=39	=39	=39	=39	=39	=39	=39	=39	=39	=39	=39	=39	=39	=39
!	!	!	!	!LO:LB:g=original	!	!	!	!	!	!	!	!	!	!	!	!	!	!	!	!	!	!	!	!	!	!	!
!	!	!	!	!LO:SIC:v:s=8fn/L	!	!	!	!LO:SIC:v:s=8Fn\	!	!	!	!	!	!	!	!	!	!	!	!	!	!	!	!	!	!	!
8Fn\L	.	.	8g\L	8f#/L	.	(8b\L	.	8F#\	Mar-	.	8G/	Mar-	.	8d\	Mar-	.	8b\	Mar-	.	2g\	.	2g\	.	4dd\	.	4bb\	.
!	!	!	!	!	!	!	!	!	!	!	!	!	!	!LO:SIC:v:s=8fn\	!	!	!	!	!	!	!	!	!	!	!	!	!
!	!	!	!	!	!	!	!	!LO:SIC:v:l:s=-ty-	!	!	!LO:SIC:v:l:s=-ty-	!	!	!LO:SIC:v:l:s=-ty-	!	!	!LO:SIC:v:l:s=-ty-	!	!	!	!	!	!	!	!	!	!
8G\J	.	.	8g\J	8G/J	.	8dd\J)	.	8G\	-ti-	.	8G/	-ti-	.	8f#\	-ti-	.	8dd\	-ti-	.	.	.	.	.	.	.	.	.
4C/	.	.	4g\	4e/	.	4cc\	.	4C/	-rum	.	4G/	-rum	.	4e\	-rum	.	4cc\	-rum	.	.	.	.	.	4ee\	.	4ccc\	.
=40	=40	=40	=40	=40	=40	=40	=40	=40	=40	=40	=40	=40	=40	=40	=40	=40	=40	=40	=40	=40	=40	=40	=40	=40	=40	=40	=40
!	!	!	!LO:LB:g=original	!LO:TX:t=P:problem:mixed beam	!	!	!	!	!	!	!	!	!	!LO:LB:g=original	!	!	!	!	!	!LO:LB:g=original	!	!	!	!	!	!	!
8AA/L	7 5	.	4a\	(8ee\L	.	(8gg\L	.	4C#X/	o-	.	8e\L	o-	.	4a\	o-	.	8gg\L	o-	.	2a\	.	2a\	.	4ccc#X\	.	4eee\	.
8C#X/	.	.	.	8cc#X\)	.	8ee\)	.	.	.	.	8c#X\J	.	.	.	.	.	8ee\J	.	.	.	.	.	.	.	.	.	.
8D/	x 3	.	8a\L	(8dd\	.	(8ff#X\	.	8D\	-ra	.	8d\	-ra	.	8a\	-ra	.	8ff#X\	-ra	.	.	.	.	.	4ddd\	.	4fff#\	.
8F#X/J	.	.	8a\J	8f#X/J)	.	8dd\J)	.	8F#\	pro	.	8A\	pro	.	8f#\	pro	.	8dd\	pro	.	.	.	.	.	.	.	.	.
=41	=41	=41	=41	=41	=41	=41	=41	=41	=41	=41	=41	=41	=41	=41	=41	=41	=41	=41	=41	=41	=41	=41	=41	=41	=41	=41	=41
8G\L	.	.	8a\L	8g/L	.	8cc#X\L	.	8G\L	no-	.	4A\	no-	.	8e\L	no-	.	8cc#X\L	no-	.	2a\	.	2a\	.	4ee\	.	4ccc#X\	.
8A\J	.	.	8a\J	8A/J	.	8ee\J	.	8A\J	.	.	.	.	.	8g\J	.	.	8ee\J	.	.	.	.	.	.	.	.	.	.
4D\	.	.	4a\	4f#/	.	4dd\	.	4D/	-bis	.	4A\	-bis	.	4f#\	-bis	.	4dd\	-bis	.	.	.	.	.	4ff#\	.	4ddd\	.
=42	=42	=42	=42	=42	=42	=42	=42	=42	=42	=42	=42	=42	=42	=42	=42	=42	=42	=42	=42	=42	=42	=42	=42	=42	=42	=42	=42
!	!	!	!	!LO:TX:t=P:problem:mixed beam	!	!	!	!LO:LB:g=original	!	!	!LO:LB:g=original	!	!	!	!	!	!	!	!	!	!	!	!	!	!	!	!
8F#\L	x 3	.	(8a\L	(>16ff#\LL	.	(16cccn\LL	.	4F#\	Re-	.	4d\	Re-	.	4a\	Re-	.	4ccn\	Re-	.	4d\	.	4a\	.	4ff#\	.	4cccn\	.
.	.	.	.	16d/) 16a/	.	16dd\)	.	.	.	.	.	.	.	.	.	.	.	.	.	.	.	.	.	.	.	.	.
8D\	.	.	8d\)	(>16d/ 16a/	.	(16dd\	.	.	.	.	.	.	.	.	.	.	.	.	.	.	.	.	.	.	.	.	.
.	.	.	.	16ff#\JJ)	.	16ccc\JJ)	.	.	.	.	.	.	.	.	.	.	.	.	.	.	.	.	.	.	.	.	.
8G\	x 3	.	(8g\	(>16gg\LL	.	(16bb\LL	.	8G\	-gi-	.	8d\	-gi-	.	8g\	-gi-	.	8b\	-gi-	.	4g\	.	4b\	.	4gg\	.	4bb\	.
.	.	.	.	16d/) 16b/	.	16dd\	.	.	.	.	.	.	.	.	.	.	.	.	.	.	.	.	.	.	.	.	.
8D\J	.	.	8d\J)	(>16d/ 16b/	.	16dd\	.	8B\	-na	.	8d\	-na	.	8g\	-na	.	8b\	-na	.	.	.	.	.	.	.	.	.
.	.	.	.	16gg\JJ)	.	16bb\JJ)	.	.	.	.	.	.	.	.	.	.	.	.	.	.	.	.	.	.	.	.	.
=43	=43	=43	=43	=43	=43	=43	=43	=43	=43	=43	=43	=43	=43	=43	=43	=43	=43	=43	=43	=43	=43	=43	=43	=43	=43	=43-	=43-
!	!	!	!	!LO:TX:t=P:problem:mixed beam	!	!	!	!	!	!	!	!	!	!	!	!	!LO:LB:g=original	!	!	!	!	!	!	!	!	!LO:LB:g=original	!
8F#\L	.	.	(8a\L	16ff#\LL	.	16ccc\LL	.	8A\	Con-	.	8d\	Con-	.	8a\	Con-	.	8cc\	Con-	.	4d\	.	4a\	.	4ff#\	.	4ccc\	.
.	.	.	.	16d/ 16a/	.	16dd\	.	.	.	.	.	.	.	.	.	.	.	.	.	.	.	.	.	.	.	.	.
8D\	.	.	8d\)	16d/ 16a/	.	16dd\	.	8F#\	-feſ-	.	8d\	-feſ-	.	8a\	-feſ-	.	8cc\	-feſ-	.	.	.	.	.	.	.	.	.
.	.	.	.	16ff#\JJ	.	16ccc\JJ	.	.	.	.	.	.	.	.	.	.	.	.	.	.	.	.	.	.	.	.	.
8G\	.	.	(8b\	16gg\LL	.	16bb\LL	.	8G\	-so-	.	8d\	-so-	.	8g\	-so-	.	8b\	-so-	.	4g\	.	4b\	.	4gg\	.	4bb\	.
.	.	.	.	16d/ 16b/	.	16dd\	.	.	.	.	.	.	.	.	.	.	.	.	.	.	.	.	.	.	.	.	.
8D\J	.	.	8d\J)	16d/ 16b/	.	16dd\	.	8B\	-rum	.	8d\	-rum	.	8g\	-rum	.	8b\	-rum	.	.	.	.	.	.	.	.	.
.	.	.	.	16gg\JJ	.	16bb\JJ	.	.	.	.	.	.	.	.	.	.	.	.	.	.	.	.	.	.	.	.	.
=44	=44	=44	=44	=44	=44	=44	=44	=44	=44	=44	=44	=44	=44	=44	=44	=44	=44	=44	=44	=44	=44	=44	=44	=44	=44	=44	=44
!	!	!	!	!	!	!	!	!	!	!	!	!	!	!	!	!	!	!	!	!LO:TX:a:t=6	!	!LO:TX:a:t=6	!	!	!	!	!
8C/L	x 3	.	(8e\L	(16cc/LL	.	(16ee\LL	.	8C/	Re-	.	8G/	Re-	.	8e\	Re-	.	8cc\	Re-	.	0r	.	0r	.	2cc\	.	2ee\	.
.	.	.	.	16g/)	.	16dd\)	.	.	.	.	.	.	.	.	.	.	.	.	.	.	.	.	.	.	.	.	.
8AA/J	.	.	8c\J)	(16cc/	.	(16ee\	.	8r	.	.	8r	.	.	8r	.	.	8r	.	.	.	.	.	.	.	.	.	.
.	.	.	.	16g/JJ)	.	16cc\JJ)	.	.	.	.	.	.	.	.	.	.	.	.	.	.	.	.	.	.	.	.	.
8r	.	.	8r	(16cc/LL	.	(16aa\LL	.	4r	.	.	4r	.	.	4r	.	.	4r	.	.	.	.	.	.	.	.	.	.
.	.	.	.	16a/)	.	16gg\	.	.	.	.	.	.	.	.	.	.	.	.	.	.	.	.	.	.	.	.	.
8C/	x 3	.	8e\	(16cc/	.	16ff#\	.	.	.	.	.	.	.	.	.	.	.	.	.	.	.	.	.	.	.	.	.
.	.	.	.	16a/JJ)	.	16ee\JJ)	.	.	.	.	.	.	.	.	.	.	.	.	.	.	.	.	.	.	.	.	.
=45	=45	=45	=45	=45	=45	=45	=45	=45	=45	=45	=45	=45	=45	=45	=45	=45	=45	=45	=45	=45	=45	=45	=45	=45	=45	=45	=45
!	!	!	!	!LO:LB:g=original	!	!	!	!	!	!	!	!	!	!	!	!	!	!	!	!	!	!	!	!	!	!	!
8D/L	x 3	.	(8f#\L	(16dd\LL	.	16ff#\LL	.	8D\	-gi-	.	8A\	-gi-	.	8f#\	-gi-	.	8dd\	-gi-	.	.	.	.	.	2dd\	.	2ff#\	.
.	.	.	.	16a\)	.	16ee\	.	.	.	.	.	.	.	.	.	.	.	.	.	.	.	.	.	.	.	.	.
8BB/J	.	.	8d\J)	(16dd\	.	16ff#\	.	8r	.	.	8r	.	.	8r	.	.	8r	.	.	.	.	.	.	.	.	.	.
.	.	.	.	16a\JJ)	.	16dd\JJ	.	.	.	.	.	.	.	.	.	.	.	.	.	.	.	.	.	.	.	.	.
8r	.	.	8r	(16dd\LL	.	(16bb\LL	.	4r	.	.	4r	.	.	4r	.	.	4r	.	.	.	.	.	.	.	.	.	.
.	.	.	.	16b\)	.	16aa\	.	.	.	.	.	.	.	.	.	.	.	.	.	.	.	.	.	.	.	.	.
8D\	x 3	.	8f#\	(16dd\	.	16gg\)	.	.	.	.	.	.	.	.	.	.	.	.	.	.	.	.	.	.	.	.	.
.	.	.	.	16b\JJ)	.	16ff#\JJ	.	.	.	.	.	.	.	.	.	.	.	.	.	.	.	.	.	.	.	.	.
=46	=46	=46	=46	=46	=46	=46	=46	=46	=46	=46	=46	=46	=46	=46	=46	=46	=46	=46	=46	=46	=46	=46	=46	=46	=46	=46	=46
!LO:LB:g=original	!	!	!	!	!	!LO:LB:g=original	!	!	!	!	!	!	!	!	!	!	!	!	!	!	!	!	!	!	!	!	!
8E\L	x 3	.	(8g\L	(16ee\LL	.	(16gg\LL	.	8E\	-na	.	8B\	-na	.	8g\	-na	.	8ee\	-na	.	.	.	.	.	2ee\	.	2gg\	.
.	.	.	.	16b\)	.	16ff#\)	.	.	.	.	.	.	.	.	.	.	.	.	.	.	.	.	.	.	.	.	.
8C\J	.	.	8e\J)	(16ee\	.	(16gg\	.	8r	.	.	8r	.	.	8r	.	.	8r	.	.	.	.	.	.	.	.	.	.
.	.	.	.	16b\JJ)	.	16ee\JJ)	.	.	.	.	.	.	.	.	.	.	.	.	.	.	.	.	.	.	.	.	.
8r	.	.	8r	(16ee\LL	.	16ccc\LL	.	4r	.	.	4r	.	.	4r	.	.	4r	.	.	.	.	.	.	.	.	.	.
.	.	.	.	16ccn\)	.	16bb\	.	.	.	.	.	.	.	.	.	.	.	.	.	.	.	.	.	.	.	.	.
8E\	x 3	.	8g\	(16ee\	.	16aa\	.	.	.	.	.	.	.	.	.	.	.	.	.	.	.	.	.	.	.	.	.
.	.	.	.	16cc\JJ)	.	16gg\JJ	.	.	.	.	.	.	.	.	.	.	.	.	.	.	.	.	.	.	.	.	.
=47	=47	=47	=47	=47	=47	=47	=47	=47	=47	=47	=47	=47	=47	=47	=47	=47	=47	=47	=47	=47	=47	=47	=47	=47	=47	=47	=47
8F#\L	x 3	.	8a\L	(16ff#\LL	.	16aa\LL	.	4F#\	Vir-	.	4c\	Vir-	.	4a\	Vir-	.	4ff#\	Vir-	.	.	.	.	.	2ff#\	.	2aa\	.
.	.	.	.	16cc\)	.	16gg\	.	.	.	.	.	.	.	.	.	.	.	.	.	.	.	.	.	.	.	.	.
8D\J	.	.	8f#\J	(16ff#\	.	16aa\	.	.	.	.	.	.	.	.	.	.	.	.	.	.	.	.	.	.	.	.	.
.	.	.	.	16cc\JJ)	.	16ff#\JJ	.	.	.	.	.	.	.	.	.	.	.	.	.	.	.	.	.	.	.	.	.
8r	.	.	8r	(16ff#\LL	.	16ddd\LL	.	8r	.	.	8r	.	.	8r	.	.	8r	.	.	.	.	.	.	.	.	.	.
.	.	.	.	16dd\)	.	16ccc\	.	.	.	.	.	.	.	.	.	.	.	.	.	.	.	.	.	.	.	.	.
8F#\	x 3	.	8a\	(16ff#\	.	16bb\	.	8F#\	-gi-	.	8d\	-gi-	.	8a\	-gi-	.	8ff#\	-gi-	.	.	.	.	.	.	.	.	.
.	.	.	.	16dd\JJ)	.	16aa\JJ	.	.	.	.	.	.	.	.	.	.	.	.	.	.	.	.	.	.	.	.	.
=48	=48	=48	=48	=48	=48	=48	=48	=48	=48	=48	=48	=48	=48	=48	=48	=48	=48	=48	=48	=48	=48	=48	=48	=48	=48	=48	=48
!	!	!	!	!	!	!	!	!	!	!	!	!	!	!LO:LB:g=original	!	!	!	!	!	!	!	!	!	!LO:LB:g=original	!	!	!
8G\	x 3	.	8b\	(16gg\LL	.	(16bb\LL	.	4G\	-num	.	4d\	-num	.	4b\	-num	.	4gg\	-num	.	1r	.	1r	.	(16gg\LL	.	(16bb\LL	.
.	.	.	.	16ee\)	.	16gg\)	.	.	.	.	.	.	.	.	.	.	.	.	.	.	.	.	.	16ee\)	.	16gg\)	.
8r	.	.	8r	(16gg\	.	(16bb\	.	.	.	.	.	.	.	.	.	.	.	.	.	.	.	.	.	(16gg\	.	(16bb\	.
.	.	.	.	16ee\JJ)	.	16gg\JJ)	.	.	.	.	.	.	.	.	.	.	.	.	.	.	.	.	.	16ee\JJ)	.	16gg\JJ)	.
8E\	x 3	.	8g\	(16ee\LL	.	(16gg\LL	.	4r	.	.	4r	.	.	4r	.	.	4r	.	.	.	.	.	.	(16ee\LL	.	(16gg\LL	.
.	.	.	.	16cc\)	.	16ee\)	.	.	.	.	.	.	.	.	.	.	.	.	.	.	.	.	.	16cc\)	.	16ee\)	.
8r	.	.	8r	(16ee\	.	(16gg\	.	.	.	.	.	.	.	.	.	.	.	.	.	.	.	.	.	(16ee\	.	(16gg\	.
.	.	.	.	16cc\JJ)	.	16ee\JJ)	.	.	.	.	.	.	.	.	.	.	.	.	.	.	.	.	.	16cc\JJ)	.	16ee\JJ)	.
=49	=49	=49	=49	=49	=49	=49	=49	=49	=49	=49	=49	=49	=49	=49	=49	=49	=49	=49	=49	=49	=49	=49	=49	=49	=49	=49	=49
!	!	!	!	!	!	!	!	!LO:TX:a:t=1	!	!	!LO:TX:a:t=1	!	!	!LO:TX:a:t=1	!	!	!LO:TX:a:t=1	!	!	!	!	!	!	!	!	!	!
8C/	x 3	.	8e\	(16cc\LL	.	16ee\LL	.	2r	.	.	2r	.	.	2r	.	.	2r	.	.	.	.	.	.	(16cc\LL	.	(16ee\LL	.
.	.	.	.	16a\)	.	16cc\	.	.	.	.	.	.	.	.	.	.	.	.	.	.	.	.	.	16a\)	.	16cc\)	.
8r	.	.	8r	(16cc\	.	16ee\	.	.	.	.	.	.	.	.	.	.	.	.	.	.	.	.	.	(16cc\	.	(16ee\	.
.	.	.	.	16a\JJ)	.	16cc\JJ	.	.	.	.	.	.	.	.	.	.	.	.	.	.	.	.	.	16a\JJ)	.	16cc\JJ)	.
8AA/	x 3	.	8c\	16a/LL	.	16cc\LL	.	.	.	.	.	.	.	.	.	.	.	.	.	.	.	.	.	(16a/LL	.	(16cc\LL	.
.	.	.	.	16f#/	.	16a\	.	.	.	.	.	.	.	.	.	.	.	.	.	.	.	.	.	16f#/)	.	16a\)	.
8r	.	.	8r	16a/	.	16cc\	.	.	.	.	.	.	.	.	.	.	.	.	.	.	.	.	.	(16a/	.	(16cc\	.
.	.	.	.	16f#/JJ	.	16a\JJ	.	.	.	.	.	.	.	.	.	.	.	.	.	.	.	.	.	16f#/JJ)	.	16a\JJ)	.
=50	=50	=50	=50	=50	=50	=50	=50	=50	=50	=50	=50	=50	=50	=50	=50	=50	=50	=50	=50	=50	=50	=50	=50	=50	=50	=50	=50
*tremolo	*	*	*	*	*	*	*	*	*	*	*	*	*	*	*	*	*	*	*	*	*	*	*	*	*	*	*
!	!	!	!LO:PB:g=original	!	!	!	!	!	!	!	!	!	!	!	!	!	!	!	!	!	!	!	!	!	!	!	!
!	!	!	!LO:TX:t=P:problem:ciąg dalszy na skanie 015	!LO:TX:t=P:problem:mixed beam	!	!	!	!LO:LB:g=original	!	!	!LO:LB:g=original	!	!	!	!	!	!	!	!	!	!	!	!	!	!	!	!
8D\L	x 4	.	16d\LL|>	16g/LL	.	16b\LL	.	2d\	o-	.	2d\	o-	.	2g\	o-	.	2b\	o-	.	2g\	.	2b\	.	4g/	.	4b\	.
.	.	.	(16b\	16gg\	.	16gg\	.	.	.	.	.	.	.	.	.	.	.	.	.	.	.	.	.	.	.	.	.
8D\	.	.	16g\	(16ff#\	.	(16ff#\	.	.	.	.	.	.	.	.	.	.	.	.	.	.	.	.	.	.	.	.	.
.	.	.	16b\JJ)	16ee\JJ	.	16ee\JJ	.	.	.	.	.	.	.	.	.	.	.	.	.	.	.	.	.	.	.	.	.
8D\	.	.	16d\LL|>	16dd\LL	.	16dd\LL	.	.	.	.	.	.	.	.	.	.	.	.	.	.	.	.	.	4gg\	.	4bb\	.
.	.	.	(16b\	16cc\)	.	16cc\)	.	.	.	.	.	.	.	.	.	.	.	.	.	.	.	.	.	.	.	.	.
8D\J	.	.	16g\	16b\	.	16b\	.	.	.	.	.	.	.	.	.	.	.	.	.	.	.	.	.	.	.	.	.
.	.	.	16b\JJ)	16a\JJ	.	16a\JJ	.	.	.	.	.	.	.	.	.	.	.	.	.	.	.	.	.	.	.	.	.
=51	=51	=51	=51	=51	=51	=51	=51	=51	=51	=51	=51	=51	=51	=51	=51	=51	=51	=51	=51	=51	=51	=51	=51	=51	=51	=51	=51
8D\L	_ _	.	16d\LL	16g/LL	.	16g/LL	.	2d\	.	.	2d\	.	.	2g\	.	.	2b\	.	.	2g\	.	2b\	.	2gg\	.	2bb\	.
.	.	.	16b\	16f#/	.	16f#/	.	.	.	.	.	.	.	.	.	.	.	.	.	.	.	.	.	.	.	.	.
8D\	x x	.	16g\	(16e/	.	(16e/	.	.	.	.	.	.	.	.	.	.	.	.	.	.	.	.	.	.	.	.	.
.	.	.	16b\JJ	16d/JJ	.	16d/JJ	.	.	.	.	.	.	.	.	.	.	.	.	.	.	.	.	.	.	.	.	.
8D\	.	.	16d\LL	16c/LL	.	16c/LL	.	.	.	.	.	.	.	.	.	.	.	.	.	.	.	.	.	.	.	.	.
.	.	.	16b\	16B/)	.	16B/)	.	.	.	.	.	.	.	.	.	.	.	.	.	.	.	.	.	.	.	.	.
8D\J	.	.	16g\	16A/	.	16A/	.	.	.	.	.	.	.	.	.	.	.	.	.	.	.	.	.	.	.	.	.
.	.	.	16b\JJ	16G/JJ	.	16G/JJ	.	.	.	.	.	.	.	.	.	.	.	.	.	.	.	.	.	.	.	.	.
=52	=52	=52	=52	=52	=52	=52	=52	=52	=52	=52	=52	=52	=52	=52	=52	=52	=52	=52	=52	=52	=52	=52	=52	=52	=52	=52	=52
!	!	!	!	!LO:LB:g=original	!	!	!	!	!	!	!	!	!	!	!	!	!	!	!	!	!	!	!	!	!	!	!
8DD/L	x 5	.	16d\LL'	16d/LL	.	(<16d/LL	.	2D\	-ra	.	2d\	-ra	.	2f#\	-ra	.	2a\	-ra	.	2d/	.	2a\	.	2ff#\	.	2aa\	.
.	.	.	(16a\	(16c#X/	.	16c#X/	.	.	.	.	.	.	.	.	.	.	.	.	.	.	.	.	.	.	.	.	.
8DD/	.	.	16f#\	16d/	.	16d/	.	.	.	.	.	.	.	.	.	.	.	.	.	.	.	.	.	.	.	.	.
.	.	.	16a\JJ)	16f#/JJ)	.	16f#/JJ	.	.	.	.	.	.	.	.	.	.	.	.	.	.	.	.	.	.	.	.	.
8DD/	.	.	16d\LL'	(16a\LL	.	16a\LL)	.	.	.	.	.	.	.	.	.	.	.	.	.	.	.	.	.	.	.	.	.
.	.	.	(16a\	16dd\	.	16dd\	.	.	.	.	.	.	.	.	.	.	.	.	.	.	.	.	.	.	.	.	.
8DD/J	.	.	16f#\	16ff#\	.	16ff#\	.	.	.	.	.	.	.	.	.	.	.	.	.	.	.	.	.	.	.	.	.
.	.	.	16a\JJ)	16aa\JJ)	.	16aa\JJ	.	.	.	.	.	.	.	.	.	.	.	.	.	.	.	.	.	.	.	.	.
=53	=53	=53	=53	=53	=53	=53	=53	=53	=53	=53	=53	=53	=53	=53	=53	=53	=53	=53	=53	=53	=53	=53	=53	=53	=53	=53	=53
!	!	!	!	!	!	!LO:LB:g=original	!	!	!	!	!	!	!	!	!	!	!	!	!	!	!	!	!	!	!	!	!
8DD/L	.	.	16d\LL'	16cccn\LL	.	16cccn\LL	.	2D\	.	.	2d\	.	.	2f#\	.	.	2a\	.	.	2d/	.	2a\	.	2ff#\	.	2aa\	.
.	.	.	(16a\	(16aa\	.	16aa\	.	.	.	.	.	.	.	.	.	.	.	.	.	.	.	.	.	.	.	.	.
8DD/	.	.	16f#\	16ff#\)	.	16ff#\	.	.	.	.	.	.	.	.	.	.	.	.	.	.	.	.	.	.	.	.	.
.	.	.	16a\JJ)	16dd\JJ	.	16dd\JJ	.	.	.	.	.	.	.	.	.	.	.	.	.	.	.	.	.	.	.	.	.
8DD/	.	.	16d\LL'	(16cc\LL	.	16cc\LL	.	.	.	.	.	.	.	.	.	.	.	.	.	.	.	.	.	.	.	.	.
.	.	.	(16a\	16a\	.	16a\	.	.	.	.	.	.	.	.	.	.	.	.	.	.	.	.	.	.	.	.	.
8DD/J	.	.	16f#\	16f#\)	.	16f#\	.	.	.	.	.	.	.	.	.	.	.	.	.	.	.	.	.	.	.	.	.
.	.	.	16a\JJ)	16d\JJ	.	16d\JJ	.	.	.	.	.	.	.	.	.	.	.	.	.	.	.	.	.	.	.	.	.
*Xtremolo	*	*	*	*	*	*	*	*	*	*	*	*	*	*	*	*	*	*	*	*	*	*	*	*	*	*	*
=54	=54	=54	=54	=54	=54	=54	=54	=54	=54	=54	=54	=54	=54	=54	=54	=54	=54	=54	=54	=54	=54	=54	=54	=54	=54	=54	=54
!	!	!	!	!	!	!LO:TX:t=P:problem:mixed beam	!	!	!	!	!	!	!	!	!	!	!LO:LB:g=original	!	!	!	!	!	!	!	!	!	!
8BB/L	.	.	8d\L	8b\L	.	16G/LL	.	8BB/L	pro	.	8d\L	pro	.	(8b\L	pro	.	(8dd\L	pro	.	4r	.	4r	.	8gg\L	.	8bb\L	.
.	.	.	.	.	.	16gg\	.	.	.	.	.	.	.	.	.	.	.	.	.	.	.	.	.	.	.	.	.
8C/	.	.	8d\	16cc\L	.	16ee\	.	8C/J	.	.	8e\J	.	.	16cc\L	.	.	16ee\L	.	.	.	.	.	.	8aa\	.	8ccc\	.
.	.	.	.	16a\JJ	.	16cc\JJ	.	.	.	.	.	.	.	16a\JJ)	.	.	16cc\JJ)	.	.	.	.	.	.	.	.	.	.
8D/	6 4	.	8d\	8g/L	.	8b/L	.	8D/	no-	.	8d\	no-	.	8g\	no-	.	8b\	no-	.	8g\L	.	8b\L	.	8gg\	.	8bb\	.
8DD/J	5 3	.	8d\J	8f#/J	.	8a/J	.	8D/	-bis	.	8d\	-bis	.	8f#\	-bis	.	8a\	-bis	.	8d\J	.	8a\J	.	8ff#\J	.	8aa\J	.
=55	=55	=55	=55	=55	=55	=55	=55	=55	=55	=55	=55	=55	=55	=55	=55	=55	=55	=55	=55	=55	=55	=55	=55	=55	=55	=55	=55
*	*	*	*tremolo	*tremolo	*	*	*	*	*	*	*	*	*	*	*	*	*	*	*	*	*	*	*	*	*	*	*
!LO:TX:b:t=pedal	!	!	!	!	!LO:DY:t=piano	!	!LO:DY:t=piano	!	!	!	!	!	!	!	!	!	!	!	!	!	!	!LO:LB:g=original	!	!	!LO:DY:t=piano	!	!
2GG/|>	.	.	8g\L	8d/ 8bL	p	4.dd\	p	2GG/	Re-	.	2d\	Re-	.	2g\	Re-	.	2b\	Re-	.	2g\	.	2b\	.	(8gg\L	p	2bb\	.
.	.	.	8g\	8d/ 8b	.	.	.	.	.	.	.	.	.	.	.	.	.	.	.	.	.	.	.	8dd\)	.	.	.
.	.	.	8g\	8d/ 8b	.	.	.	.	.	.	.	.	.	.	.	.	.	.	.	.	.	.	.	(8gg\	.	.	.
.	.	.	8g\J	8d/ 8bJ	.	(16bb\LL	.	.	.	.	.	.	.	.	.	.	.	.	.	.	.	.	.	8dd\J)	.	.	.
.	.	.	.	.	.	16gg\JJ)	.	.	.	.	.	.	.	.	.	.	.	.	.	.	.	.	.	.	.	.	.
=56	=56	=56	=56	=56	=56	=56	=56	=56	=56	=56	=56	=56	=56	=56	=56	=56	=56	=56	=56	=56	=56	=56	=56	=56	=56	=56	=56
2D\|>	.	.	8a\L	8d/ 8ccL	.	8ff#\L	.	4D\	-gi-	.	4d\	-gi-	.	4a\	-gi-	.	4cc\	-gi-	.	2d/	.	2a\	.	(8aa\L	.	2ccc\	.
.	.	.	8a\	8d/ 8cc	.	(16aa\L	.	.	.	.	.	.	.	.	.	.	.	.	.	.	.	.	.	8dd\)	.	.	.
.	.	.	.	.	.	16ff#\JJ)	.	.	.	.	.	.	.	.	.	.	.	.	.	.	.	.	.	.	.	.	.
.	.	.	8a\	8d/ 8cc	.	8dd'\L	.	8D\	-na	.	8d\	-na	.	8a\	-na	.	8cc\	-na	.	.	.	.	.	(8aa\	.	.	.
.	.	.	8a\J	8d/ 8ccJ	.	8dd'\J	.	8D\	ſan-	.	8d\	ſan-	.	8a\	ſanc-	.	8cc\	ſan-	.	.	.	.	.	8dd\J)	.	.	.
=57	=57	=57	=57	=57	=57	=57	=57	=57	=57	=57	=57	=57	=57	=57	=57	=57	=57	=57	=57	=57	=57	=57	=57	=57	=57	=57-	=57-
!LO:LB:g=original	!	!	!	!	!	!	!	!	!	!	!	!	!	!	!	!	!	!	!	!	!	!	!	!	!	!	!
2G\	.	.	8g\L	8d/ 8bL	.	8dd\L	.	4G\	-cto-	.	4d\	-cto-	.	4g\	-to-	.	4b\	-cto-	.	2g\	.	2b\	.	2gg\	.	2bb\	.
.	.	.	8g\	8d/ 8b	.	8gg\	.	.	.	.	.	.	.	.	.	.	.	.	.	.	.	.	.	.	.	.	.
.	.	.	8g\	8d/ 8b	.	8bb\	.	4G\	-rum	.	4d\	-rum	.	4g\	-rum	.	4b\	-rum	.	.	.	.	.	.	.	.	.
.	.	.	8g\J	8d/ 8bJ	.	8gg\J	.	.	.	.	.	.	.	.	.	.	.	.	.	.	.	.	.	.	.	.	.
=58	=58	=58	=58	=58	=58	=58	=58	=58	=58	=58	=58	=58	=58	=58	=58	=58	=58	=58	=58	=58	=58	=58	=58	=58	=58	=58	=58
!	!	!	!	!	!	!	!	!	!	!	!LO:LB:g=original	!	!	!LO:LB:g=original	!	!	!	!	!	!	!	!	!	!	!	!	!
2D\	.	.	8f#\L	8d/ 8aL	.	4ccc\	.	8D\	o-	.	8d\	o-	.	8f#\	o-	.	8a\	o-	.	2d/	.	2a\	.	2ff#\	.	2aa\	.
.	.	.	8f#\	8d/ 8a	.	.	.	8D\	-mni-	.	8d\	-mni-	.	8f#\	-mni-	.	8a\	-mni-	.	.	.	.	.	.	.	.	.
.	.	.	8f#\	8d/ 8a	.	4aa\	.	4D\	-um	.	4d\	-um	.	4f#\	-um	.	4a\	-um	.	.	.	.	.	.	.	.	.
.	.	.	8f#\J	8d/ 8aJ	.	.	.	.	.	.	.	.	.	.	.	.	.	.	.	.	.	.	.	.	.	.	.
=59	=59	=59	=59	=59	=59	=59	=59	=59	=59	=59	=59	=59	=59	=59	=59	=59	=59	=59	=59	=59	=59	=59	=59	=59	=59	=59	=59
!LO:TX:b:t=Organo	!	!LO:DY:t=for	!	!	!LO:DY:t=for	!	!LO:DY:t=forte	!	!	!	!	!	!LO:DY:a:t=f.	!	!	!LO:DY:a	!	!	!LO:DY:a:t=for	!	!LO:DY:t=for	!	!	!	!	!	!
2GG/	5 3	f	8g\L	8d/ 8bL	f	4.dd\	f	2GG/	o-	.	2B\	o-	f	2g\	o-	f	2dd\	o-	f	2g\	f	2b\	.	2gg\	.	2bb\	.
.	.	.	8g\	8d/ 8b	.	.	.	.	.	.	.	.	.	.	.	.	.	.	.	.	.	.	.	.	.	.	.
.	.	.	8g\	8d/ 8b	.	.	.	.	.	.	.	.	.	.	.	.	.	.	.	.	.	.	.	.	.	.	.
.	.	.	8g\J	8d/ 8bJ	.	(16bb\LL	.	.	.	.	.	.	.	.	.	.	.	.	.	.	.	.	.	.	.	.	.
.	.	.	.	.	.	16gg\JJ)	.	.	.	.	.	.	.	.	.	.	.	.	.	.	.	.	.	.	.	.	.
=60	=60	=60	=60	=60	=60	=60	=60	=60	=60	=60	=60	=60	=60	=60	=60	=60	=60	=60	=60	=60	=60	=60	=60	=60	=60	=60	=60
!	!	!	!LO:LB:g=original	!	!	!	!	!	!	!	!	!	!	!	!	!	!	!	!	!	!	!	!	!LO:LB:g=original	!LO:DY:t=for	!	!
2D\	7 8	.	8a\L	8d/ 8ccL	.	8ff#\L	.	4D\	-ra	.	4c\	-ra	.	4a\	-ra-	.	4dd\	-ra	.	2d/	.	2a\	.	2aa\	f	2ccc\	.
.	.	.	8a\	8d/ 8cc	.	(16aa\L	.	.	.	.	.	.	.	.	.	.	.	.	.	.	.	.	.	.	.	.	.
.	.	.	.	.	.	16ff#\JJ)	.	.	.	.	.	.	.	.	.	.	.	.	.	.	.	.	.	.	.	.	.
.	.	.	8a\	8d/ 8cc	.	8dd'\L	.	4D\	pro	.	4c\	pro	.	4a\	-pro	.	4dd\	pro	.	.	.	.	.	.	.	.	.
.	.	.	8a\J	8d/ 8ccJ	.	8dd'\J	.	.	.	.	.	.	.	.	.	.	.	.	.	.	.	.	.	.	.	.	.
*	*	*	*	*Xtremolo	*	*	*	*	*	*	*	*	*	*	*	*	*	*	*	*	*	*	*	*	*	*	*
*	*	*	*Xtremolo	*	*	*	*	*	*	*	*	*	*	*	*	*	*	*	*	*	*	*	*	*	*	*	*
=61	=61	=61	=61	=61	=61	=61	=61	=61	=61	=61	=61	=61	=61	=61	=61	=61	=61	=61	=61	=61	=61	=61	=61	=61	=61	=61	=61
!	!	!	!	!LO:LB:g=original	!	!	!	!	!	!	!	!	!	!	!	!	!	!	!	!	!	!	!	!	!	!	!
4G\	x 3	.	8g\L	8d/L 8b	.	(8gg\L	.	(4G\	no-	.	(4B\	no-	.	(4g\	no-	.	(4dd\	no-	.	4g\	.	4b\	.	4gg\	.	4bb\	.
.	.	.	8g\	8d/ 8b	.	8bb\)	.	.	.	.	.	.	.	.	.	.	.	.	.	.	.	.	.	.	.	.	.
4D\	x 5	.	8f#\	8d/ 8a	.	(8dd\	.	4D\)	.	.	4d\)	.	.	4a\)	.	.	4ff#\)	.	.	4d\	.	4a\	.	4ff#\	.	4aa\	.
.	.	.	8f#\J	8d/J 8a	.	8ff#\J)	.	.	.	.	.	.	.	.	.	.	.	.	.	.	.	.	.	.	.	.	.
=62	=62	=62	=62	=62	=62	=62	=62	=62	=62	=62	=62	=62	=62	=62	=62	=62	=62	=62	=62	=62	=62	=62	=62	=62	=62	=62	=62
!	!	!	!	!	!	!LO:LB:g=original	!	!	!	!	!	!	!	!	!	!	!	!	!	!	!LO:DY:t=p.:rj	!	!	!	!	!	!
4GG/	.	.	8d\	8b\	.	(16gg\LL	.	4G\	-bis	.	4d\	-bis	.	4b\	-bis	.	4gg\	-bis	.	8B\	p	8g\	.	4gg\	.	4gg\	.
.	.	.	.	.	.	16dd\)	.	.	.	.	.	.	.	.	.	.	.	.	.	.	.	.	.	.	.	.	.
.	.	.	8r	8r	.	(16bb\	.	.	.	.	.	.	.	.	.	.	.	.	.	8r	.	8r	.	.	.	.	.
.	.	.	.	.	.	16gg\JJ)	.	.	.	.	.	.	.	.	.	.	.	.	.	.	.	.	.	.	.	.	.
8r	.	.	8r	8r	.	(16ccc\LL	.	8r	.	.	8r	.	.	8r	.	.	8r	.	.	8r	.	8r	.	8r	.	8r	.
.	.	.	.	.	.	16aa\)	.	.	.	.	.	.	.	.	.	.	.	.	.	.	.	.	.	.	.	.	.
8D\	.	.	8d\	8a/	.	(16ff#\	.	8D\	o-	.	8d\	o-	.	8a\	o-	.	8ff#\	o-	.	8d\	.	8a\	.	8ff#\	.	8aa\	.
.	.	.	.	.	.	16dd\JJ)	.	.	.	.	.	.	.	.	.	.	.	.	.	.	.	.	.	.	.	.	.
=63	=63	=63	=63	=63	=63	=63	=63	=63	=63	=63	=63	=63	=63	=63	=63	=63	=63	=63	=63	=63	=63	=63	=63	=63	=63	=63	=63
!	!	!	!	!	!	!	!	!	!	!	!	!	!	!	!	!	!	!	!	!LO:LB:g=original	!	!	!	!	!	!	!
4G\	.	.	4d\	4b\	.	(16gg\LL	.	4G\	-ra	.	4d\	-ra	.	4b\	-ra	.	4gg\	-ra	.	4g\	.	4b\	.	4gg\	.	4bb\	.
.	.	.	.	.	.	16dd\)	.	.	.	.	.	.	.	.	.	.	.	.	.	.	.	.	.	.	.	.	.
.	.	.	.	.	.	(16bb\	.	.	.	.	.	.	.	.	.	.	.	.	.	.	.	.	.	.	.	.	.
.	.	.	.	.	.	16gg\JJ)	.	.	.	.	.	.	.	.	.	.	.	.	.	.	.	.	.	.	.	.	.
8r	.	.	8r	8r	.	(16ccc\LL	.	8r	.	.	8r	.	.	8r	.	.	8r	.	.	8r	.	8r	.	8r	.	8r	.
.	.	.	.	.	.	16aa\)	.	.	.	.	.	.	.	.	.	.	.	.	.	.	.	.	.	.	.	.	.
8D/	.	.	8d\	8a/	.	(16ff#\	.	8D\	pro	.	8d\	pro	.	8a\	pro	.	8ff#\	pro	.	8d\	.	8a\	.	8ff#\	.	8aa\	.
.	.	.	.	.	.	16dd\JJ)	.	.	.	.	.	.	.	.	.	.	.	.	.	.	.	.	.	.	.	.	.
=64	=64	=64	=64	=64	=64	=64	=64	=64	=64	=64	=64	=64	=64	=64	=64	=64	=64	=64	=64	=64	=64	=64	=64	=64	=64	=64	=64
!LO:TX:t=P:problem:mixed beam	!	!	!	!	!	!	!	!	!	!	!	!	!	!	!	!	!LO:LB:g=original	!	!	!	!	!	!	!	!	!	!
8GG/L	.	.	4G/ 4d	4b\	.	4gg\	.	2G\	no-	.	2d\	no-	.	2b\	no-	.	2gg\	no-	.	4g\	.	4b\	.	4gg\	.	4bb\	.
8G\	.	.	.	.	.	.	.	.	.	.	.	.	.	.	.	.	.	.	.	.	.	.	.	.	.	.	.
8D\	.	.	4G/ 4d	4G/ 4d 4b	.	4G/ 4d 4b 4gg	.	.	.	.	.	.	.	.	.	.	.	.	.	8g\L	.	8b\L	.	4gg\	.	4bb\	.
8BB\J	.	.	.	.	.	.	.	.	.	.	.	.	.	.	.	.	.	.	.	8g\J	.	8b\J	.	.	.	.	.
=65	=65	=65	=65	=65	=65	=65	=65	=65	=65	=65	=65	=65	=65	=65	=65	=65	=65	=65	=65	=65	=65	=65	=65	=65	=65	=65	=65
4GG/	.	.	4G/ 4d	4G/ 4d 4b	.	4G/ 4d 4b 4gg	.	4G\	-bis.	.	4d\	-bis	.	4b\	-bis	.	4gg\	-bis	.	4g\	.	4b\	.	4gg\	.	4bb\	.
4r	.	.	4r	4r	.	4r	.	4r	.	.	4r	.	.	4r	.	.	4r	.	.	4r	.	4r	.	4r	.	4r	.
!	!	!	!	!	!	!	!	!	!	!	!	!	!	!	!	!	!	!	!	!	!	!	!	!LO:TX:b:t=Verte Cito	!	!LO:TX:b:t=Verte Cito	!
==;	==	==	==	==	==	==	==	==	==	==	==	==	==	==	==	==	==	==	==	==	==	==	==	==	==	==	==
*-	*-	*-	*-	*-	*-	*-	*-	*-	*-	*-	*-	*-	*-	*-	*-	*-	*-	*-	*-	*-	*-	*-	*-	*-	*-	*-	*-
!!!system-decoration: [(g1)][(g2)][(g3)][(g4)](s12)
!!!ENC: Kamil Watkowski
!!!END: 2020-10-29
!!!AIN: 1 alto 1 bass 2 cor 2 flt 1 organ 1 soprn 1 tenor 1 viola 2 violn
!!!ENC: Krzysztof Stępień
!!!END: 2020-10-29
!!!RDF**kern: > = above
!!!RDF**kern: < = below
!!!RDF**kern: | = vertical stroke
